img/icons/corp2/2.svg

<svg width="30" height="51" viewBox="0 0 30 51" fill="none" xmlns="http://www.w3.org/2000/svg">
<path d="M15.5997 10.385C15.6606 10.385 15.6606 10.385 15.5997 10.385C17.245 12.2768 21.6324 12.643 24.8011 10.8122C27.2995 9.3476 28.701 6.47938 29.1275 2.14654L29.1885 1.71936L28.8229 1.53628C24.9229 -0.294501 21.6324 -0.477579 19.1949 0.926018C15.9653 2.81782 14.2591 6.72348 15.1122 9.3476C15.0513 9.3476 15.0513 9.40862 14.9903 9.40862C14.0763 10.0799 13.5888 11.1173 13.5279 12.643C13.5279 12.8871 13.5279 13.1312 13.5279 13.3143C13.4669 13.2533 13.406 13.1922 13.406 13.1922C12.9794 12.7651 12.5529 12.4599 12.1873 12.2158V12.1548C12.3701 10.0799 9.99355 7.51682 7.06861 6.96759C4.81397 6.5404 2.62026 7.45579 0.304681 9.71375L0 10.0189L0.182809 10.4461C1.58434 13.3143 3.3515 14.962 5.48426 15.3281C7.92172 15.7553 10.6029 14.7789 11.6388 13.2533C11.8826 13.3753 12.1263 13.6194 12.431 13.9245C12.9794 14.5348 13.345 15.2061 13.4669 16.0605C13.4669 16.3046 13.4669 20.4543 13.4669 25.4584H11.9435C11.456 25.4584 11.0904 25.8246 11.0904 26.3128V32.9036C10.542 33.758 9.62793 34.9175 8.65295 36.26C7.49516 37.8467 6.15456 39.6775 4.99677 41.3252V41.4472C4.99677 41.5083 4.93584 41.5083 4.93584 41.5693C4.14367 42.7288 3.41243 43.8883 2.864 44.8647C2.25464 45.9632 1.88902 46.8175 1.88902 47.4888C1.88902 48.3432 2.25464 49.0755 2.80307 49.6247C3.3515 50.174 4.08273 50.5401 4.93584 50.5401H23.3386C24.1917 50.5401 24.9229 50.174 25.4714 49.6247L25.5323 49.5637C26.0198 49.0145 26.3854 48.2822 26.3854 47.4888C26.3854 46.8786 26.0198 45.9632 25.4104 44.8647C24.862 43.8883 24.1308 42.7288 23.3386 41.5693C23.3386 41.5083 23.2777 41.5083 23.2777 41.4472C22.1199 39.7385 20.7793 37.9077 19.5605 36.26C18.5856 34.9175 17.7325 33.758 17.1231 32.9036V26.4349C17.1231 25.9467 16.7575 25.5805 16.27 25.5805H14.6856V12.582C14.7466 11.4835 15.0513 10.7512 15.5997 10.385ZM10.0545 37.2975C11.0904 35.8329 12.0654 34.5513 12.6138 33.6969C12.7357 33.5749 12.7966 33.3918 12.7966 33.1477V27.2892H13.406C13.406 32.2323 13.406 37.6636 13.406 41.0811H7.31235C8.2264 39.7995 9.20138 38.518 10.0545 37.2975ZM15.3559 27.2892V33.1477C15.3559 33.3308 15.4169 33.5139 15.4778 33.6359C16.0262 34.4903 17.0012 35.8329 18.0981 37.2975C18.9512 38.518 19.9262 39.7995 20.8402 41.0811H14.6856V27.2892H15.3559Z" fill="#343434"/>
</svg>

<svg width="30" height="51" fill="none" xmlns="http://www.w3.org/2000/svg"><path d="M15.6 10.385c.06 0 .06 0 0 0 1.645 1.892 6.032 2.258 9.201.427 2.498-1.464 3.9-4.333 4.327-8.665l.06-.428-.365-.183c-3.9-1.83-7.19-2.014-9.628-.61-3.23 1.892-4.936 5.797-4.083 8.422-.06 0-.06.06-.122.06-.914.672-1.401 1.71-1.462 3.235v.671l-.122-.122a7.738 7.738 0 0 0-1.219-.976v-.061c.183-2.075-2.193-4.638-5.118-5.187C4.814 6.54 2.62 7.456.305 9.714L0 10.019l.183.427c1.401 2.868 3.168 4.516 5.301 4.882 2.438.427 5.119-.55 6.155-2.075.244.122.487.366.792.671.548.61.914 1.282 1.036 2.137v9.397h-1.524a.834.834 0 0 0-.853.855v6.59c-.548.855-1.462 2.014-2.437 3.357-1.158 1.587-2.498 3.418-3.656 5.065v.122c0 .061-.061.061-.061.122a46.264 46.264 0 0 0-2.072 3.296c-.61 1.098-.975 1.953-.975 2.624 0 .854.366 1.587.914 2.136.549.549 1.28.915 2.133.915h18.403c.853 0 1.584-.366 2.132-.915l.061-.061c.488-.55.853-1.282.853-2.075 0-.61-.365-1.526-.975-2.624a46.241 46.241 0 0 0-2.071-3.296c0-.06-.061-.06-.061-.122-1.158-1.709-2.499-3.54-3.717-5.187-.975-1.343-1.828-2.502-2.438-3.356v-6.47a.834.834 0 0 0-.853-.854h-1.584V12.583c.06-1.099.365-1.83.914-2.197zm-5.545 26.913c1.035-1.465 2.01-2.747 2.559-3.601.122-.122.183-.305.183-.55V27.29h.609v13.792H7.312c.914-1.282 1.89-2.563 2.743-3.784zm5.3-10.009v5.859c0 .183.062.366.123.488.548.854 1.523 2.197 2.62 3.661.853 1.221 1.828 2.503 2.742 3.784h-6.154V27.29h.67z" fill="#343434"/></svg>
